X:1
T:Gladden, 88.88.88
T:Thoro Harris, before 1911
T:Gladden, 88.88.88
T:Public Domain
C:Thoro Harris, before 1911
Z:Public Domain
%%score ( 1 2 ) ( 3 4 )
L:1/8
M:4/4
K:C
V:1 treble 
V:2 treble 
V:3 bass 
V:4 bass 
V:1
 G2 | [Ge]3 [Fd] [Ec]2 [GB]2 | [Ad]2 [Ac]2 [GB]2 [FA]2 | [EG]3 [FA] [EG]2 [CE]2 | %4
 [DF]2 [CE]2 [B,D]2 G2 | [Ee]3 [Fd] [Gc]2 [^GB]2 | [^Gd]2 [Ac]2 [GB]2 [FA]2 | %7
 [^Fd]3 [Fd] (ed)(cB) | [DA]2 [^Fd]2 G2 [EG]2 | [FA]3 [EG] [DF]2 [B,D]2 | [EG]3 [DF] [CE]2 [EG]2 | %11
 [FA]2 [FB]2 [Fc]2 (ed) | c4 z2 F2 x2 | [Ec]6 |] %14
V:2
 G2 | x8 | x8 | x8 | x6 G2 | x8 | x8 | x4 ^F2 F2 | x4 G2 x2 | x8 | x8 | x6 A2 | G6 B4 | x6 |] %14
V:3
 G,2 | [C,C]3 [D,G,] [E,G,]2 [E,C]2 | [F,C]2 [F,C]2 [F,C]2 [F,C]2 | [C,C]3 [C,C] [C,C]2 [C,G,]2 | %4
 [C,G,]2 [C,G,]2 [C,G,]2 G,2 | [C,G,]3 [D,B,] [E,C]2 [E,D]2 | [F,B,]2 [F,C]2 [F,C]2 [F,C]2 | %7
 (C2 z) D, [D,C]2 [D,A,]2 | [^F,C]2 [D,C]2 [G,B,]2 z2 | [G,,G,]6 z2 | [C,G,]6 [C,C]2 | %11
 [F,C]2 [D,G,]2 [E,G,]2 [F,C]2 | [G,E]4 [G,,D]4 x2 | [C,C]6 |] %14
V:4
 G,2 | x8 | x8 | x8 | x6 G,2 | x8 | x8 | D,3 A,2 x3 | x8 | x8 | x8 | x8 | x10 | x6 |] %14

